X:1
T:Title
%%score { ( 1 3 4 ) | ( 2 5 ) }
L:1/8
Q:1/4=100
M:4/4
K:Bb
V:1 treble nm="Grand Piano"
V:3 treble 
V:4 treble 
V:2 bass 
V:5 bass 
V:1
 [DF]>[CE] [B,D]>[CE] [DF]>[DB] [Fd]>[Ec] | [D-B]4 D4 | %2
w: George~Ely * * * * * * *||
 [CE]>[B,D] [A,C]>[B,D] [CE]>[DF] [EA]>[EG] | [_DG]4[K:bass][K:treble] z4 | %4
w: ||
 [DF]>[CE] [B,D]>[CE] [DF]>[DB] [Fd]>[_Af] | [Ge]4 z4 | A>G A>G F>e d>c | B6 z2 | %8
w: ||||
 [DF]>[DF] [EG]>F .B2 .A2 | .A>C .c>A, c4 | F>F G>F [Ec]2 [EF]2 | [DF]2 [FB]2 z4 | %12
w: ||||
 [^Fd]>[Fc] [DFB]>[CFA] [B,GB]2 [B,EG]2 | z4 [Ec]2 z2 | F>G A>G F>e d>c | B6 z2 |] %16
w: ||||
V:2
 [B,,B,]>[B,,B,] [B,,F,]>[B,,F,] [B,,B,]>[B,,B,] [F,A,]>[F,A,] | B,,2 B,,>B,, z2 F,2 | %2
 [F,,F,]>[F,,F,] [F,,F,]>[F,,F,] [F,,F,]>[F,,F,] [F,,F,]>[F,,F,] | [B,,=E,]2 B,,>B,, [B,,F,]4 | %4
 [B,,B,]>[B,,B,] [B,,F,]>[B,,F,] [B,,B,]>[B,,B,] [B,,B,]>[B,,B,] | [E,B,]2 E,>E, [E,B,E]4 | %6
 [F,E]>[F,E] [F,E]>[F,E] [F,A,E]>[F,A,F] [F,A,F]>[F,A,E] | %7
 [B,,B,]>[B,,F,] [B,,G,]>[B,,^F,] [B,,=F,]2 z2 | .[B,,F,]2 .[B,,F,]>D .[F,D]2 .[F,E]2 | %9
 .[F,CE]>F, .[F,A,E]>F, [F,A,E]4 | .[F,A,E]>E .[F,A,E]>E .[F,A,]2 .[F,A,]2 | %11
 [B,,B,]>B,, D,>F, [B,F]4 | [D,A,]>[D,A,] D,>D, E,2 E,2 | D,2 G,2 C,2 C,2 | %14
 [F,D]>[F,DF] [F,CE]>[F,B,E] [F,A,E]>[F,A,F] [F,A,F]>[F,A,E] | %15
 [B,,B,]>[B,,F,] [B,,G,]>[B,,^F,] [B,,=F,]2 z2 |] %16
V:3
 x8 | z4 F4 | x8 | z2[K:bass] =E,>E,[K:treble] [=DF]4 | x8 | z2 B,>B, G4 | x8 | D>D E>E D2 z2 | %8
 x8 | x8 | x8 | z z/ B,/ B,>B, d4 | x8 | [B,F]2 [B,DB]2 G2- [_DGB]2 | x8 | D>D E>E D2 z2 |] %16
V:4
 x8 | B,2 B,>B, B,2 z2 | x8 | x2[K:bass] x2[K:treble] x4 | x8 | x8 | x8 | x8 | x8 | x8 | x8 | x8 | %12
 x8 | x8 | x8 | x8 |] %16
V:5
 x8 | z4 B,,4 | x8 | x8 | x8 | x8 | x8 | x8 | x8 | x8 | x8 | x8 | x8 | x8 | x8 | x8 |] %16

